cartflows/admin-core/assets/images/plugins/variation-swatches-woo.svg

<svg width="256" height="256" viewBox="0 0 256 256" fill="none" xmlns="http://www.w3.org/2000/svg">
<g clip-path="url(#clip0_78_588)">
<path fill-rule="evenodd" clip-rule="evenodd" d="M5.30015 201.594L5.30014 3.99998L103.743 3.99997L103.743 201.594L103.743 204.072L103.681 204.072C102.39 230.105 80.8745 250.815 54.5215 250.815C28.1685 250.815 6.65266 230.105 5.36148 204.072L5.30015 204.072L5.30015 201.594Z" fill="white"/>
<path fill-rule="evenodd" clip-rule="evenodd" d="M5.36148 204.072C6.65266 230.105 28.1685 250.815 54.5215 250.815C80.8745 250.815 102.39 230.105 103.681 204.072L103.743 204.072L103.743 3.99997L5.30014 3.99998L5.30015 204.072L5.36148 204.072ZM11.6741 202.678L11.7276 203.757C12.8514 226.413 31.583 244.441 54.5215 244.441C77.46 244.441 96.1916 226.413 97.3153 203.757L97.3688 202.678L97.3688 10.374L11.6741 10.374L11.6741 202.678Z" fill="#183650"/>
<path fill-rule="evenodd" clip-rule="evenodd" d="M85.3211 200.177C85.3264 200.412 85.3291 200.648 85.3291 200.885C85.3291 217.9 71.5361 231.693 54.5215 231.693C37.5069 231.693 23.7139 217.9 23.7139 200.885C23.7139 200.648 23.7166 200.412 23.7219 200.177L23.7139 200.177L23.7139 23.1217L85.3291 23.1217L85.3291 200.177L85.3211 200.177Z" fill="#E83D62"/>
<path fill-rule="evenodd" clip-rule="evenodd" d="M25.0647 164.673L173.857 34.6567L238.632 108.786L89.8397 238.802L87.9731 240.433L87.9328 240.387C67.4802 256.544 37.7277 253.969 20.3875 234.125C3.04733 214.281 4.48504 184.452 23.2385 166.35L23.1981 166.304L25.0647 164.673Z" fill="white"/>
<path fill-rule="evenodd" clip-rule="evenodd" d="M23.2385 166.35C4.48504 184.452 3.04733 214.281 20.3875 234.125C37.7277 253.969 67.4802 256.544 87.9328 240.387L87.9731 240.433L238.632 108.786L173.857 34.6567L23.1981 166.304L23.2385 166.35ZM28.4423 170.186L27.6652 170.936C11.344 186.69 10.0938 212.658 25.1872 229.931C40.2807 247.204 66.1817 249.447 83.9816 235.385L84.8291 234.716L229.638 108.18L173.251 43.6506L28.4423 170.186Z" fill="#183650"/>
<path fill-rule="evenodd" clip-rule="evenodd" d="M78.7849 223.998C78.6111 224.157 78.435 224.314 78.2568 224.47C65.4445 235.666 45.9823 234.355 34.7867 221.543C23.5912 208.73 24.9018 189.268 37.7142 178.073C37.8924 177.917 38.0719 177.763 38.2527 177.613L38.2475 177.607L171.574 61.1047L212.116 107.502L78.7901 224.004L78.7849 223.998Z" fill="#50BF9F"/>
<path fill-rule="evenodd" clip-rule="evenodd" d="M57.8981 156.02H246.784V248.965H57.8981H55.5286V248.907C30.6432 247.688 10.8458 227.374 10.8458 202.492C10.8458 177.611 30.6432 157.297 55.5286 156.077V156.02H57.8981Z" fill="white"/>
<path fill-rule="evenodd" clip-rule="evenodd" d="M51.2668 154.204C25.3225 155.499 4.68256 177.072 4.68256 203.495C4.68256 229.918 25.3225 251.491 51.2668 252.786V252.847H250.662V154.142H51.2668V154.204ZM52.6566 160.533L51.5815 160.587C29.0021 161.714 11.035 180.495 11.035 203.495C11.035 226.495 29.0021 245.276 51.5815 246.403L52.6566 246.456H244.309V160.533H52.6566Z" fill="#183650"/>
<path fill-rule="evenodd" clip-rule="evenodd" d="M57.703 237.179C57.4676 237.185 57.2315 237.18 56.9948 237.18C39.9802 237.195 23.792 221.031 23.7771 204.016C23.7623 187.001 39.9265 170.813 56.9411 170.798C57.1778 170.798 57.4139 170.793 57.6493 170.798L234.704 170.643L234.758 237.025L57.703 237.179Z" fill="#F1F1F1"/>
<path d="M62.9233 202.193C62.9233 208.683 57.6624 213.944 51.1727 213.944C44.6831 213.944 39.4221 208.683 39.4221 202.193C39.4221 195.704 44.6831 190.443 51.1727 190.443C57.6624 190.443 62.9233 195.704 62.9233 202.193Z" fill="#183650"/>
<path d="M116.744 201.819C116.744 212.635 107.976 221.404 97.1601 221.404C86.344 221.404 77.5758 212.635 77.5758 201.819C77.5758 191.003 86.344 182.235 97.1601 182.235C107.976 182.235 116.744 191.003 116.744 201.819Z" fill="#F26051"/>
<path d="M169.187 201.819C169.187 212.635 160.416 221.404 149.597 221.404C138.777 221.404 130.007 212.635 130.007 201.819C130.007 191.003 138.777 182.235 149.597 182.235C160.416 182.235 169.187 191.003 169.187 201.819Z" fill="#F26051"/>
<path d="M219.234 201.819C219.234 212.635 210.464 221.404 199.644 221.404C188.825 221.404 180.054 212.635 180.054 201.819C180.054 191.003 188.825 182.235 199.644 182.235C210.464 182.235 219.234 191.003 219.234 201.819Z" fill="#F26051"/>
<path d="M96.6177 208.736C93.885 208.736 91.7321 207.894 90.1592 206.21L91.7083 204.065C93.0747 205.527 94.7509 206.258 96.7369 206.258C97.8014 206.258 98.5958 206.043 99.1201 205.614C99.6603 205.185 99.9304 204.677 99.9304 204.089C99.9304 203.485 99.6126 203.008 98.9771 202.659C98.3416 202.293 97.571 202.007 96.6654 201.801C95.7598 201.594 94.8462 201.348 93.9247 201.062C93.0191 200.776 92.2485 200.292 91.613 199.608C90.9774 198.925 90.6597 198.043 90.6597 196.963C90.6597 195.628 91.1919 194.524 92.2564 193.65C93.3368 192.761 94.735 192.316 96.4509 192.316C98.8977 192.316 100.884 193.054 102.409 194.532L100.812 196.605C99.6047 195.398 98.0715 194.794 96.2126 194.794C95.3864 194.794 94.727 194.977 94.2345 195.342C93.7579 195.692 93.5195 196.169 93.5195 196.772C93.5195 197.169 93.6864 197.503 94.02 197.773C94.3696 198.043 94.8144 198.266 95.3546 198.441C95.8948 198.599 96.4906 198.758 97.142 198.917C97.8093 199.076 98.4687 199.275 99.1201 199.513C99.7874 199.735 100.391 200.013 100.931 200.347C101.472 200.681 101.908 201.142 102.242 201.729C102.592 202.317 102.766 203.016 102.766 203.827C102.766 205.257 102.25 206.432 101.217 207.354C100.185 208.275 98.6514 208.736 96.6177 208.736Z" fill="white"/>
<path d="M157.747 208.45H154.959V196.653L150.073 208.45H148.882L144.02 196.653V208.45H141.232V192.554H145.164L149.478 203.017L153.815 192.554H157.747V208.45Z" fill="white"/>
<path d="M205.841 208.45H196.046V192.554H198.834V205.996H205.841V208.45Z" fill="white"/>
</g>
<defs>
<clipPath id="clip0_78_588">
<rect width="256" height="256" fill="white"/>
</clipPath>
</defs>
</svg>

<svg width="256" height="256" fill="none" xmlns="http://www.w3.org/2000/svg"><g clip-path="url(#a)"><path fill-rule="evenodd" clip-rule="evenodd" d="M5.3 201.594V4h98.443v200.072h-.062c-1.291 26.033-22.806 46.743-49.16 46.743-26.352 0-47.868-20.71-49.16-46.743h-.06v-2.478Z" fill="#fff"/><path fill-rule="evenodd" clip-rule="evenodd" d="M5.361 204.072c1.292 26.033 22.808 46.743 49.16 46.743 26.353 0 47.869-20.71 49.16-46.743h.062V4H5.3v200.072h.061Zm6.313-1.394.054 1.079c1.123 22.656 19.855 40.684 42.794 40.684 22.938 0 41.67-18.028 42.793-40.684l.054-1.079V10.374H11.674v192.304Z" fill="#183650"/><path fill-rule="evenodd" clip-rule="evenodd" d="M85.321 200.177c.005.235.008.471.008.708 0 17.015-13.793 30.808-30.807 30.808-17.015 0-30.808-13.793-30.808-30.808 0-.237.003-.473.008-.708h-.008V23.122h61.615v177.055h-.008Z" fill="#E83D62"/><path fill-rule="evenodd" clip-rule="evenodd" d="M25.065 164.673 173.857 34.657l64.775 74.129L89.84 238.802l-1.867 1.631-.04-.046c-20.453 16.157-50.205 13.582-67.546-6.262-17.34-19.844-15.902-49.673 2.851-67.775l-.04-.046 1.867-1.631Z" fill="#fff"/><path fill-rule="evenodd" clip-rule="evenodd" d="M23.238 166.35c-18.753 18.102-20.19 47.931-2.85 67.775 17.34 19.844 47.092 22.419 67.545 6.262l.04.046 150.659-131.647-64.775-74.13L23.198 166.305l.04.046Zm5.204 3.836-.777.75c-16.321 15.754-17.571 41.722-2.478 58.995 15.094 17.273 40.995 19.516 58.795 5.454l.847-.669L229.638 108.18l-56.387-64.53L28.442 170.187Z" fill="#183650"/><path fill-rule="evenodd" clip-rule="evenodd" d="M78.785 223.998c-.174.159-.35.316-.528.472-12.813 11.196-32.275 9.885-43.47-2.927-11.196-12.813-9.885-32.275 2.927-43.47.178-.156.358-.31.539-.46l-.005-.006L171.573 61.105l40.542 46.397L78.79 224.004l-.005-.006Z" fill="#50BF9F"/><path fill-rule="evenodd" clip-rule="evenodd" d="M57.898 156.02h188.886v92.945H55.528v-.058c-24.885-1.219-44.682-21.533-44.682-46.415 0-24.881 19.797-45.195 44.683-46.415v-.057h2.37Z" fill="#fff"/><path fill-rule="evenodd" clip-rule="evenodd" d="M51.267 154.204c-25.945 1.295-46.584 22.868-46.584 49.291s20.64 47.996 46.584 49.291v.061h199.395v-98.705H51.267v.062Zm1.39 6.329-1.075.054c-22.58 1.127-40.547 19.908-40.547 42.908s17.967 41.781 40.546 42.908l1.076.053h191.652v-85.923H52.657Z" fill="#183650"/><path fill-rule="evenodd" clip-rule="evenodd" d="M57.703 237.179c-.235.006-.472.001-.708.001-17.015.015-33.203-16.149-33.218-33.164-.015-17.015 16.15-33.203 33.164-33.218.237 0 .473-.005.708 0l177.055-.155.054 66.382-177.055.154Z" fill="#F1F1F1"/><path d="M62.923 202.193c0 6.49-5.26 11.751-11.75 11.751s-11.75-5.261-11.75-11.751c0-6.489 5.26-11.75 11.75-11.75s11.75 5.261 11.75 11.75Z" fill="#183650"/><path d="M116.744 201.819c0 10.816-8.768 19.585-19.584 19.585-10.816 0-19.584-8.769-19.584-19.585s8.768-19.584 19.584-19.584c10.816 0 19.584 8.768 19.584 19.584ZM169.187 201.819c0 10.816-8.771 19.585-19.59 19.585-10.82 0-19.59-8.769-19.59-19.585s8.77-19.584 19.59-19.584c10.819 0 19.59 8.768 19.59 19.584ZM219.234 201.819c0 10.816-8.77 19.585-19.59 19.585-10.819 0-19.59-8.769-19.59-19.585s8.771-19.584 19.59-19.584c10.82 0 19.59 8.768 19.59 19.584Z" fill="#F26051"/><path d="M96.618 208.736c-2.733 0-4.886-.842-6.459-2.526l1.55-2.145c1.366 1.462 3.042 2.193 5.028 2.193 1.064 0 1.859-.215 2.383-.644.54-.429.81-.937.81-1.525 0-.604-.317-1.081-.953-1.43-.635-.366-1.406-.652-2.312-.858a37.243 37.243 0 0 1-2.74-.739 5.262 5.262 0 0 1-2.312-1.454c-.636-.683-.953-1.565-.953-2.645 0-1.335.532-2.439 1.596-3.313 1.08-.889 2.479-1.334 4.195-1.334 2.447 0 4.433.738 5.958 2.216l-1.597 2.073c-1.207-1.207-2.74-1.811-4.6-1.811-.826 0-1.485.183-1.978.548-.476.35-.715.827-.715 1.43 0 .397.167.731.501 1.001.35.27.794.493 1.335.668.54.158 1.136.317 1.787.476.667.159 1.327.358 1.978.596.667.222 1.271.5 1.811.834a3.79 3.79 0 0 1 1.311 1.382c.35.588.524 1.287.524 2.098 0 1.43-.516 2.605-1.549 3.527-1.032.921-2.566 1.382-4.6 1.382ZM157.747 208.45h-2.788v-11.797l-4.886 11.797h-1.191l-4.862-11.797v11.797h-2.788v-15.896h3.932l4.314 10.463 4.337-10.463h3.932v15.896ZM205.841 208.45h-9.795v-15.896h2.788v13.442h7.007v2.454Z" fill="#fff"/></g><defs><clipPath id="a"><path fill="#fff" d="M0 0h256v256H0z"/></clipPath></defs></svg>
